X:591
T:Empty Pockets
C:G. Bruce
S:Bruce & Emmett's Drummers and Fifers Guide (1862), p. 59
M:2/4
L:1/16
Q:1/4=90
K:Amix
%%MIDI program 72
%%MIDI transpose 8
%%MIDI ratio 3 1
A2|Ae ze efge|dG~G2 BGdB|Ae ze Te2df|eA~A2 a3f|g2bg efge|
dG~G2 BGdB|Ae ze Te2df|e2A2A2::A2|Aa za zafa|gG~G2 BGdB|
Aa za zafa|g2e2 a3f|g2bg efge|dG~G2 BGdB|Ae ze Te2df|e2A2A2:|
